X: 12
T:Old Harry                                     A B3 D A C3 D
M:4/4
L:1/4
Q:80
S:Westminster MM noted by Michael Blanford
Z:Edited by Bill Johnsto
K:G
D|B B/2c/2 d>B| A/2B/2A/2G/2 E2| A A B/2A/2G/2B/2 | A2 D2| G G/2A/2 B G
| A/2G/2F/2E/2DD |G <G/4A/4B/4 c> B |A2 G2||
A A/2B/2 A E|A/2G/2F/2E/2 D D| G <G/4A/4B/4 c A|d2 d:||
B A>B|A2 E2|A>G|F2>E/2|D2D2|  G <G/4A/4B/4 c A|d2 d:||
d|g>d B>d| e/2d/2c/2B/2 A D| G <G/4A/4B/4 c A |d2 d>d| g>d B>d| e/2d/2c/
2B/2 A D| G <G/4A/4B/4 c B|A2G2||
